Obsidian/status/16s/indicator-cpufreq-100.svg

<svg height="16" width="16" xmlns="http://www.w3.org/2000/svg"><path d="m3.3477 0a.25823.25823 0 0 0 -.2539.2617v1.5684c-.6493.1087-1.155.6144-1.2637 1.2637h-1.5684a.25875.25875 0 1 0 0 .5175h1.541v2.5821h-1.541a.25823.25823 0 1 0 0 .5156h1.541v2.582h-1.541a.25823.25823 0 1 0 0 .516h1.541v2.582h-1.541a.2585.2585 0 1 0 0 .517h1.5684c.1087.65.6144 1.155 1.2637 1.264v1.568a.25875.25875 0 1 0 .5175 0v-1.541h2.5821v1.541a.25823.25823 0 1 0 .5156 0v-1.541h2.582v1.541a.25823.25823 0 1 0 .516 0v-1.541h2.582v1.541a.2585.2585 0 1 0 .517 0v-1.568c.65-.109 1.155-.614 1.264-1.264h1.568a.25823.25823 0 0 0 .262-.261.25823.25823 0 0 0 -.262-.256h-1.541v-2.582h1.541a.25823.25823 0 0 0 .262-.262.25823.25823 0 0 0 -.262-.254h-1.541v-2.582h1.541a.25823.25823 0 0 0 .262-.2617.25823.25823 0 0 0 -.262-.2539h-1.541v-2.5821h1.541a.25823.25823 0 0 0 .262-.2636.25823.25823 0 0 0 -.262-.2539h-1.568c-.109-.6493-.614-1.155-1.264-1.2637v-1.5684a.25823.25823 0 0 0 -.263-.2617.25823.25823 0 0 0 -.254.2617v1.541h-2.582v-1.541a.25823.25823 0 0 0 -.262-.2617.25823.25823 0 0 0 -.254.2617v1.541h-2.582v-1.541a.25823.25823 0 0 0 -.2617-.2617.25823.25823 0 0 0 -.2539.2617v1.541h-2.5821v-1.541a.25823.25823 0 0 0 -.2636-.2617zm.1523 3h9c.277 0 .5.223.5.5s-.223.5-.5.5h-9c-.277 0-.5-.223-.5-.5s.223-.5.5-.5zm0 3h9c.277 0 .5.223.5.5s-.223.5-.5.5h-9c-.277 0-.5-.223-.5-.5s.223-.5.5-.5zm0 3h9c.277 0 .5.223.5.5s-.223.5-.5.5h-9c-.277 0-.5-.223-.5-.5s.223-.5.5-.5zm0 3h9c.277 0 .5.223.5.5s-.223.5-.5.5h-9c-.277 0-.5-.223-.5-.5s.223-.5.5-.5z" fill="#5294e2"/></svg>

<svg xmlns="http://www.w3.org/2000/svg" width="16" height="16" version="1.1">
 <defs>
  <style id="current-color-scheme" type="text/css">
   .ColorScheme-Text { color:#d3dae3; } .ColorScheme-Highlight { color:#5294e2; }
  </style>
 </defs>
 <path style="fill:currentColor" class="ColorScheme-Highlight" d="M 3.3477,0 A 0.25823,0.25823 0 0 0 3.0938,0.2617 V 1.8301 C 2.4445,1.9388 1.9388,2.4445 1.8301,3.0938 H 0.2617 A 0.25875,0.25875 0 1 0 0.2617,3.6113 H 1.8027 V 6.1934 H 0.2617 A 0.25823,0.25823 0 1 0 0.2617,6.709 H 1.8027 V 9.291 H 0.2617 A 0.25823,0.25823 0 1 0 0.2617,9.807 H 1.8027 V 12.389 H 0.2617 A 0.2585,0.2585 0 1 0 0.2617,12.906 H 1.8301 C 1.9388,13.556 2.4445,14.061 3.0938,14.17 V 15.738 A 0.25875,0.25875 0 1 0 3.6113,15.738 V 14.197 H 6.1934 V 15.738 A 0.25823,0.25823 0 1 0 6.709,15.738 V 14.197 H 9.291 V 15.738 A 0.25823,0.25823 0 1 0 9.807,15.738 V 14.197 H 12.389 V 15.738 A 0.2585,0.2585 0 1 0 12.906,15.738 V 14.17 C 13.556,14.061 14.061,13.556 14.17,12.906 H 15.738 A 0.25823,0.25823 0 0 0 16,12.645 0.25823,0.25823 0 0 0 15.738,12.389 H 14.197 V 9.807 H 15.738 A 0.25823,0.25823 0 0 0 16,9.545 0.25823,0.25823 0 0 0 15.738,9.291 H 14.197 V 6.709 H 15.738 A 0.25823,0.25823 0 0 0 16,6.4473 0.25823,0.25823 0 0 0 15.738,6.1934 H 14.197 V 3.6113 H 15.738 A 0.25823,0.25823 0 0 0 16,3.3477 0.25823,0.25823 0 0 0 15.738,3.0938 H 14.17 C 14.061,2.4445 13.556,1.9388 12.906,1.8301 V 0.2617 A 0.25823,0.25823 0 0 0 12.643,0 0.25823,0.25823 0 0 0 12.389,0.2617 V 1.8027 H 9.807 V 0.2617 A 0.25823,0.25823 0 0 0 9.545,0 0.25823,0.25823 0 0 0 9.291,0.2617 V 1.8027 H 6.709 V 0.2617 A 0.25823,0.25823 0 0 0 6.4473,0 0.25823,0.25823 0 0 0 6.1934,0.2617 V 1.8027 H 3.6113 V 0.2617 A 0.25823,0.25823 0 0 0 3.3477,0 Z M 3.5,3 H 12.5 C 12.777,3 13,3.223 13,3.5 13,3.777 12.777,4 12.5,4 H 3.5 C 3.223,4 3,3.777 3,3.5 3,3.223 3.223,3 3.5,3 Z M 3.5,6 H 12.5 C 12.777,6 13,6.223 13,6.5 13,6.777 12.777,7 12.5,7 H 3.5 C 3.223,7 3,6.777 3,6.5 3,6.223 3.223,6 3.5,6 Z M 3.5,9 H 12.5 C 12.777,9 13,9.223 13,9.5 13,9.777 12.777,10 12.5,10 H 3.5 C 3.223,10 3,9.777 3,9.5 3,9.223 3.223,9 3.5,9 Z M 3.5,12 H 12.5 C 12.777,12 13,12.223 13,12.5 13,12.777 12.777,13 12.5,13 H 3.5 C 3.223,13 3,12.777 3,12.5 3,12.223 3.223,12 3.5,12 Z"/>
</svg>
